assets/A_clubs.svg

<svg width="822" height="1134" fill="none" xmlns="http://www.w3.org/2000/svg"><rect y="12" width="822" height="1122" rx="50" fill="#F1F7EE"/><path d="m222.725 1097.5-14.4-58.3h-5.2c-1 0-1.5-.5-1.5-1.5v-5.1c0-1 .5-1.5 1.5-1.5h25c1 0 1.5.5 1.5 1.5v5.1c0 1-.5 1.5-1.5 1.5h-7.1l10.7 46.5 14.6-53.2c.267-.93.9-1.4 1.9-1.4h8.2c1 0 1.633.47 1.9 1.4l14.5 53.5 11.5-46.8h-6.6c-1 0-1.5-.5-1.5-1.5v-5.1c0-1 .5-1.5 1.5-1.5h21.1c1 0 1.5.5 1.5 1.5v5.1c0 1-.5 1.5-1.5 1.5h-5.3l-15.4 58.3c-.267 1-.9 1.5-1.9 1.5h-9.4c-1 0-1.633-.47-1.9-1.4l-14-49.8-13.4 49.8c-.267.93-.9 1.4-1.9 1.4h-11c-1 0-1.633-.5-1.9-1.5Zm102.899-28.2v-3.5c0-4.73-1.333-7.7-4-8.9-1.266-.53-3.1-.8-5.5-.8-4.533 0-7.266 2.13-8.2 6.4-.2 1-.7 1.5-1.5 1.5h-6.4c-1.066 0-1.533-.5-1.4-1.5.267-4.87 2.234-8.43 5.9-10.7 3.667-2.27 8.334-3.4 14-3.4 11.934 0 17.9 5.47 17.9 16.4v26.3h4.3c1 0 1.5.5 1.5 1.5v4.9c0 1-.5 1.5-1.5 1.5h-11.8c-.866 0-1.366-.5-1.5-1.5l-.7-4.6c-3.6 4.87-8.8 7.3-15.6 7.3-4.266 0-7.8-1.1-10.6-3.3-2.8-2.27-4.2-5.87-4.2-10.8 0-6.47 2.7-10.9 8.1-13.3 4.467-2.07 9.8-3.2 16-3.4 1.267 0 3-.03 5.2-.1Zm.2 14.6v-7.7c-6.4 0-10.333.3-11.8.9-1.466.6-2.766 1.2-3.9 1.8-2.133 1.13-3.2 3.2-3.2 6.2 0 4.6 2.634 6.9 7.9 6.9 3.467 0 6.167-.8 8.1-2.4 1.934-1.67 2.9-3.57 2.9-5.7Zm37.389-26.2v25.2c0 3.13.4 5.4 1.2 6.8.8 1.4 2.3 2.1 4.5 2.1s4.333-.47 6.4-1.4c.733-.27 1.266 0 1.6.8l1.8 4.6c.066.2.1.5.1.9 0 .33-.334.7-1 1.1-3.2 1.6-7 2.4-11.4 2.4-5.934 0-9.834-1.53-11.7-4.6-1.334-2-2.1-3.93-2.3-5.8-.267-2.53-.4-5.2-.4-8v-24.1h-5.7c-1 0-1.5-.5-1.5-1.5v-5.2c0-1 .5-1.5 1.5-1.5h5.7V1036c0-1 .5-1.5 1.5-1.5h8.2c1 0 1.5.5 1.5 1.5v13.5h10.1c1 0 1.5.5 1.5 1.5v5.2c0 1-.5 1.5-1.5 1.5h-10.1Zm43.514 42.5c-7.934 0-13.767-2.3-17.5-6.9-3.667-4.67-5.5-10.8-5.5-18.4 0-7.67 1.966-14 5.9-19 3.933-5 9.6-7.5 17-7.5 3.666 0 6.8.7 9.4 2.1 2.666 1.33 4.7 3.17 6.1 5.5 2.666 4.53 4 9.77 4 15.7 0 2.8-.134 4.33-.4 4.6-.267.27-.767.4-1.5.4h-29.4c.333 4.8 1.5 8.53 3.5 11.2 2.066 2.6 5.6 3.9 10.6 3.9 3.666 0 7.433-.87 11.3-2.6.933-.47 1.6-.2 2 .8l1.9 4.6c.333.8.033 1.47-.9 2-4.4 2.4-9.9 3.6-16.5 3.6Zm-11.9-30.9h20.8c.133-8.33-3.134-12.5-9.8-12.5-3.934 0-6.734 1.27-8.4 3.8-1.6 2.47-2.467 5.37-2.6 8.7Zm54.325-11.2c1.134-2.67 2.967-4.93 5.5-6.8 2.534-1.93 5.3-2.9 8.3-2.9 3 0 5.3.27 6.9.8.8.27 1.2.87 1.2 1.8v13.5c0 1-.5 1.5-1.5 1.5h-6.5c-1 0-1.466-.5-1.4-1.5l.4-5.8c-.333-.07-.9-.1-1.7-.1-3.066 0-5.6 1.27-7.6 3.8-2 2.47-3 5.8-3 10v18.7h11c1 0 1.5.5 1.5 1.5v4.9c0 1-.5 1.5-1.5 1.5h-27.5c-1 0-1.5-.5-1.5-1.5v-4.9c0-1 .5-1.5 1.5-1.5h5.3v-33.4h-5.4c-1 0-1.5-.5-1.5-1.5v-5.2c0-1 .5-1.5 1.5-1.5h13.2c.934 0 1.5.5 1.7 1.5l1.1 7.1Zm46.018-.5v33.5h10.6c1 0 1.5.5 1.5 1.5v4.9c0 1-.5 1.5-1.5 1.5h-28c-1 0-1.5-.5-1.5-1.5v-4.9c0-1 .5-1.5 1.5-1.5h6.2v-33.5h-6.2c-1 0-1.5-.5-1.5-1.5v-5.1c0-1 .5-1.5 1.5-1.5h6.2v-9.7c0-8 2.5-13.1 7.5-15.3 2.066-.93 4.9-1.4 8.5-1.4 3.6 0 7.266.83 11 2.5.6.27.9.6.9 1s-.034.7-.1.9l-1.5 5c-.334.8-.9 1.03-1.7.7-2.667-1.2-5.2-1.8-7.6-1.8-2.4 0-3.967.8-4.7 2.4-.734 1.53-1.1 4.33-1.1 8.4v7.3h12.1c1 0 1.5.5 1.5 1.5v5.1c0 1-.5 1.5-1.5 1.5h-12.1Zm46.275 11.7v-3.5c0-4.73-1.334-7.7-4-8.9-1.267-.53-3.1-.8-5.5-.8-4.534 0-7.267 2.13-8.2 6.4-.2 1-.7 1.5-1.5 1.5h-6.4c-1.067 0-1.534-.5-1.4-1.5.266-4.87 2.233-8.43 5.9-10.7 3.666-2.27 8.333-3.4 14-3.4 11.933 0 17.9 5.47 17.9 16.4v26.3h4.3c1 0 1.5.5 1.5 1.5v4.9c0 1-.5 1.5-1.5 1.5h-11.8c-.867 0-1.367-.5-1.5-1.5l-.7-4.6c-3.6 4.87-8.8 7.3-15.6 7.3-4.267 0-7.8-1.1-10.6-3.3-2.8-2.27-4.2-5.87-4.2-10.8 0-6.47 2.7-10.9 8.1-13.3 4.466-2.07 9.8-3.2 16-3.4 1.266 0 3-.03 5.2-.1Zm.2 14.6v-7.7c-6.4 0-10.334.3-11.8.9-1.467.6-2.767 1.2-3.9 1.8-2.134 1.13-3.2 3.2-3.2 6.2 0 4.6 2.633 6.9 7.9 6.9 3.466 0 6.166-.8 8.1-2.4 1.933-1.67 2.9-3.57 2.9-5.7Zm40.041-58v65.2h6.3c1 0 1.5.5 1.5 1.5v4.9c0 1-.5 1.5-1.5 1.5h-23.8c-1 0-1.5-.5-1.5-1.5v-4.9c0-1 .5-1.5 1.5-1.5h6.3v-58.5h-5.4c-1 0-1.5-.5-1.5-1.5v-5.2c0-1 .5-1.5 1.5-1.5h15.1c1 0 1.5.5 1.5 1.5Zm29.394 0v65.2h6.3c1 0 1.5.5 1.5 1.5v4.9c0 1-.5 1.5-1.5 1.5h-23.8c-1 0-1.5-.5-1.5-1.5v-4.9c0-1 .5-1.5 1.5-1.5h6.3v-58.5h-5.4c-1 0-1.5-.5-1.5-1.5v-5.2c0-1 .5-1.5 1.5-1.5h15.1c1 0 1.5.5 1.5 1.5ZM90.257 232.8l-13.8 40.5h18c3 0 4.5 1.5 4.5 4.5v14.7c0 3-1.5 4.5-4.5 4.5h-63.9c-3 0-4.5-1.5-4.5-4.5v-14.7c0-3 1.5-4.5 4.5-4.5h17.7l60-175.8c1.2-2.8 3.2-4.2 6-4.2h29.1c2.8 0 4.8 1.4 6 4.2l60.6 175.8h20.4c3 0 4.5 1.5 4.5 4.5v14.7c0 3-1.5 4.5-4.5 4.5h-75.3c-3 0-4.5-1.5-4.5-4.5v-14.7c0-3 1.5-4.5 4.5-4.5h18.6l-14.1-40.5h-69.3Zm34.5-110.7-28.5 88.2h56.7l-28.2-88.2Z" fill="#000"/><path d="m406.882 670.027-63.638 63.137c-3.169 3.144-.942 8.549 3.522 8.549h127.275c4.464 0 6.691-5.405 3.522-8.549l-63.638-63.137a5 5 0 0 0-7.043 0Z" fill="#231F20"/><circle cx="291.667" cy="583" r="59.667" fill="#393335"/><circle cx="530.334" cy="583" r="59.667" fill="#231F20"/><rect x="410.64" y="547.2" width="50.12" height="50.12" rx="5" transform="rotate(45 410.64 547.2)" fill="#231F20"/><mask id="a" style="mask-type:alpha" maskUnits="userSpaceOnUse" x="377" y="549" width="34" height="68"><path fill="#D9D9D9" d="M377.586 549.586h33.413v66.827h-33.413z"/></mask><g mask="url(#a)"><rect x="410.64" y="547.199" width="50.12" height="50.12" rx="5" transform="rotate(45 410.64 547.199)" fill="#393335"/></g><circle cx="411" cy="463.667" r="59.667" fill="#231F20"/><mask id="b" style="mask-type:alpha" maskUnits="userSpaceOnUse" x="351" y="404" width="61" height="120"><path fill="#D9D9D9" d="M351.334 404h59.667v119.333h-59.667z"/></mask><g mask="url(#b)"><circle cx="411.001" cy="463.667" r="59.667" fill="#393335"/></g><mask id="c" style="mask-type:alpha" maskUnits="userSpaceOnUse" x="341" y="668" width="69" height="74"><path fill="#D9D9D9" d="M341 668h69v74h-69z"/></mask><g mask="url(#c)"><path d="m406.882 670.027-63.638 63.137c-3.169 3.144-.942 8.549 3.522 8.549h127.275c4.464 0 6.691-5.405 3.522-8.549l-63.638-63.137a5 5 0 0 0-7.043 0Z" fill="#393335"/></g><path d="m128.425 410.731-16.311 16.182c-1.268 1.258-.377 3.42 1.409 3.42h32.622c1.785 0 2.676-2.162 1.408-3.42l-16.311-16.182a1.999 1.999 0 0 0-2.817 0Z" fill="#231F20"/><circle cx="96.667" cy="386" r="16.667" fill="#393335"/><circle cx="163.333" cy="386" r="16.667" fill="#231F20"/><path d="M128.485 377.414a2 2 0 0 1 2.829 0l7.071 7.071a2 2 0 0 1 0 2.829l-7.071 7.071a2 2 0 0 1-2.829 0l-7.071-7.071a2 2 0 0 1 0-2.829l7.071-7.071Z" fill="#231F20"/><mask id="d" style="mask-type:alpha" maskUnits="userSpaceOnUse" x="120" y="376" width="10" height="20"><path fill="#D9D9D9" d="M120.667 376.666H130v18.667h-9.333z"/></mask><g mask="url(#d)"><rect x="129.899" y="376" width="14" height="14" rx="2" transform="rotate(45 129.899 376)" fill="#393335"/></g><circle cx="130" cy="352.667" r="16.667" fill="#231F20"/><mask id="e" style="mask-type:alpha" maskUnits="userSpaceOnUse" x="113" y="336" width="17" height="34"><path fill="#D9D9D9" d="M113.332 336h16.667v33.333h-16.667z"/></mask><g mask="url(#e)"><circle cx="129.999" cy="352.667" r="16.667" fill="#393335"/></g><mask id="f" style="mask-type:alpha" maskUnits="userSpaceOnUse" x="110" y="409" width="20" height="22"><path fill="#D9D9D9" d="M110.447 409.743h19.274v20.67h-19.274z"/></mask><g mask="url(#f)"><path d="m128.425 410.731-16.311 16.182c-1.268 1.258-.377 3.42 1.409 3.42h32.622c1.785 0 2.676-2.162 1.408-3.42l-16.311-16.182a1.999 1.999 0 0 0-2.817 0Z" fill="#393335"/></g></svg>

<svg width="822" height="1134" viewBox="0 0 822 1134" fill="none" xmlns="http://www.w3.org/2000/svg">
<rect y="12" width="822" height="1122" rx="50" fill="#F1F7EE"/>
<path d="M222.725 1097.5L208.325 1039.2H203.125C202.125 1039.2 201.625 1038.7 201.625 1037.7V1032.6C201.625 1031.6 202.125 1031.1 203.125 1031.1H228.125C229.125 1031.1 229.625 1031.6 229.625 1032.6V1037.7C229.625 1038.7 229.125 1039.2 228.125 1039.2H221.025L231.725 1085.7L246.325 1032.5C246.592 1031.57 247.225 1031.1 248.225 1031.1H256.425C257.425 1031.1 258.058 1031.57 258.325 1032.5L272.825 1086L284.325 1039.2H277.725C276.725 1039.2 276.225 1038.7 276.225 1037.7V1032.6C276.225 1031.6 276.725 1031.1 277.725 1031.1H298.825C299.825 1031.1 300.325 1031.6 300.325 1032.6V1037.7C300.325 1038.7 299.825 1039.2 298.825 1039.2H293.525L278.125 1097.5C277.858 1098.5 277.225 1099 276.225 1099H266.825C265.825 1099 265.192 1098.53 264.925 1097.6L250.925 1047.8L237.525 1097.6C237.258 1098.53 236.625 1099 235.625 1099H224.625C223.625 1099 222.992 1098.5 222.725 1097.5ZM325.624 1069.3V1065.8C325.624 1061.07 324.291 1058.1 321.624 1056.9C320.358 1056.37 318.524 1056.1 316.124 1056.1C311.591 1056.1 308.858 1058.23 307.924 1062.5C307.724 1063.5 307.224 1064 306.424 1064H300.024C298.958 1064 298.491 1063.5 298.624 1062.5C298.891 1057.63 300.858 1054.07 304.524 1051.8C308.191 1049.53 312.858 1048.4 318.524 1048.4C330.458 1048.4 336.424 1053.87 336.424 1064.8V1091.1H340.724C341.724 1091.1 342.224 1091.6 342.224 1092.6V1097.5C342.224 1098.5 341.724 1099 340.724 1099H328.924C328.058 1099 327.558 1098.5 327.424 1097.5L326.724 1092.9C323.124 1097.77 317.924 1100.2 311.124 1100.2C306.858 1100.2 303.324 1099.1 300.524 1096.9C297.724 1094.63 296.324 1091.03 296.324 1086.1C296.324 1079.63 299.024 1075.2 304.424 1072.8C308.891 1070.73 314.224 1069.6 320.424 1069.4C321.691 1069.4 323.424 1069.37 325.624 1069.3ZM325.824 1083.9V1076.2C319.424 1076.2 315.491 1076.5 314.024 1077.1C312.558 1077.7 311.258 1078.3 310.124 1078.9C307.991 1080.03 306.924 1082.1 306.924 1085.1C306.924 1089.7 309.558 1092 314.824 1092C318.291 1092 320.991 1091.2 322.924 1089.6C324.858 1087.93 325.824 1086.03 325.824 1083.9ZM363.213 1057.7V1082.9C363.213 1086.03 363.613 1088.3 364.413 1089.7C365.213 1091.1 366.713 1091.8 368.913 1091.8C371.113 1091.8 373.246 1091.33 375.313 1090.4C376.046 1090.13 376.579 1090.4 376.913 1091.2L378.713 1095.8C378.779 1096 378.813 1096.3 378.813 1096.7C378.813 1097.03 378.479 1097.4 377.813 1097.8C374.613 1099.4 370.813 1100.2 366.413 1100.2C360.479 1100.2 356.579 1098.67 354.713 1095.6C353.379 1093.6 352.613 1091.67 352.413 1089.8C352.146 1087.27 352.013 1084.6 352.013 1081.8V1057.7H346.313C345.313 1057.7 344.813 1057.2 344.813 1056.2V1051C344.813 1050 345.313 1049.5 346.313 1049.5H352.013V1036C352.013 1035 352.513 1034.5 353.513 1034.5H361.713C362.713 1034.5 363.213 1035 363.213 1036V1049.5H373.313C374.313 1049.5 374.813 1050 374.813 1051V1056.2C374.813 1057.2 374.313 1057.7 373.313 1057.7H363.213ZM406.727 1100.2C398.793 1100.2 392.96 1097.9 389.227 1093.3C385.56 1088.63 383.727 1082.5 383.727 1074.9C383.727 1067.23 385.693 1060.9 389.627 1055.9C393.56 1050.9 399.227 1048.4 406.627 1048.4C410.293 1048.4 413.427 1049.1 416.027 1050.5C418.693 1051.83 420.727 1053.67 422.127 1056C424.793 1060.53 426.127 1065.77 426.127 1071.7C426.127 1074.5 425.993 1076.03 425.727 1076.3C425.46 1076.57 424.96 1076.7 424.227 1076.7H394.827C395.16 1081.5 396.327 1085.23 398.327 1087.9C400.393 1090.5 403.927 1091.8 408.927 1091.8C412.593 1091.8 416.36 1090.93 420.227 1089.2C421.16 1088.73 421.827 1089 422.227 1090L424.127 1094.6C424.46 1095.4 424.16 1096.07 423.227 1096.6C418.827 1099 413.327 1100.2 406.727 1100.2ZM394.827 1069.3H415.627C415.76 1060.97 412.493 1056.8 405.827 1056.8C401.893 1056.8 399.093 1058.07 397.427 1060.6C395.827 1063.07 394.96 1065.97 394.827 1069.3ZM449.152 1058.1C450.286 1055.43 452.119 1053.17 454.652 1051.3C457.186 1049.37 459.952 1048.4 462.952 1048.4C465.952 1048.4 468.252 1048.67 469.852 1049.2C470.652 1049.47 471.052 1050.07 471.052 1051V1064.5C471.052 1065.5 470.552 1066 469.552 1066H463.052C462.052 1066 461.586 1065.5 461.652 1064.5L462.052 1058.7C461.719 1058.63 461.152 1058.6 460.352 1058.6C457.286 1058.6 454.752 1059.87 452.752 1062.4C450.752 1064.87 449.752 1068.2 449.752 1072.4V1091.1H460.752C461.752 1091.1 462.252 1091.6 462.252 1092.6V1097.5C462.252 1098.5 461.752 1099 460.752 1099H433.252C432.252 1099 431.752 1098.5 431.752 1097.5V1092.6C431.752 1091.6 432.252 1091.1 433.252 1091.1H438.552V1057.7H433.152C432.152 1057.7 431.652 1057.2 431.652 1056.2V1051C431.652 1050 432.152 1049.5 433.152 1049.5H446.352C447.286 1049.5 447.852 1050 448.052 1051L449.152 1058.1ZM495.17 1057.6V1091.1H505.77C506.77 1091.1 507.27 1091.6 507.27 1092.6V1097.5C507.27 1098.5 506.77 1099 505.77 1099H477.77C476.77 1099 476.27 1098.5 476.27 1097.5V1092.6C476.27 1091.6 476.77 1091.1 477.77 1091.1H483.97V1057.6H477.77C476.77 1057.6 476.27 1057.1 476.27 1056.1V1051C476.27 1050 476.77 1049.5 477.77 1049.5H483.97V1039.8C483.97 1031.8 486.47 1026.7 491.47 1024.5C493.536 1023.57 496.37 1023.1 499.97 1023.1C503.57 1023.1 507.236 1023.93 510.97 1025.6C511.57 1025.87 511.87 1026.2 511.87 1026.6C511.87 1027 511.836 1027.3 511.77 1027.5L510.27 1032.5C509.936 1033.3 509.37 1033.53 508.57 1033.2C505.903 1032 503.37 1031.4 500.97 1031.4C498.57 1031.4 497.003 1032.2 496.27 1033.8C495.536 1035.33 495.17 1038.13 495.17 1042.2V1049.5H507.27C508.27 1049.5 508.77 1050 508.77 1051V1056.1C508.77 1057.1 508.27 1057.6 507.27 1057.6H495.17ZM541.445 1069.3V1065.8C541.445 1061.07 540.111 1058.1 537.445 1056.9C536.178 1056.37 534.345 1056.1 531.945 1056.1C527.411 1056.1 524.678 1058.23 523.745 1062.5C523.545 1063.5 523.045 1064 522.245 1064H515.845C514.778 1064 514.311 1063.5 514.445 1062.5C514.711 1057.63 516.678 1054.07 520.345 1051.8C524.011 1049.53 528.678 1048.4 534.345 1048.4C546.278 1048.4 552.245 1053.87 552.245 1064.8V1091.1H556.545C557.545 1091.1 558.045 1091.6 558.045 1092.6V1097.5C558.045 1098.5 557.545 1099 556.545 1099H544.745C543.878 1099 543.378 1098.5 543.245 1097.5L542.545 1092.9C538.945 1097.77 533.745 1100.2 526.945 1100.2C522.678 1100.2 519.145 1099.1 516.345 1096.9C513.545 1094.63 512.145 1091.03 512.145 1086.1C512.145 1079.63 514.845 1075.2 520.245 1072.8C524.711 1070.73 530.045 1069.6 536.245 1069.4C537.511 1069.4 539.245 1069.37 541.445 1069.3ZM541.645 1083.9V1076.2C535.245 1076.2 531.311 1076.5 529.845 1077.1C528.378 1077.7 527.078 1078.3 525.945 1078.9C523.811 1080.03 522.745 1082.1 522.745 1085.1C522.745 1089.7 525.378 1092 530.645 1092C534.111 1092 536.811 1091.2 538.745 1089.6C540.678 1087.93 541.645 1086.03 541.645 1083.9ZM581.686 1025.9V1091.1H587.986C588.986 1091.1 589.486 1091.6 589.486 1092.6V1097.5C589.486 1098.5 588.986 1099 587.986 1099H564.186C563.186 1099 562.686 1098.5 562.686 1097.5V1092.6C562.686 1091.6 563.186 1091.1 564.186 1091.1H570.486V1032.6H565.086C564.086 1032.6 563.586 1032.1 563.586 1031.1V1025.9C563.586 1024.9 564.086 1024.4 565.086 1024.4H580.186C581.186 1024.4 581.686 1024.9 581.686 1025.9ZM611.08 1025.9V1091.1H617.38C618.38 1091.1 618.88 1091.6 618.88 1092.6V1097.5C618.88 1098.5 618.38 1099 617.38 1099H593.58C592.58 1099 592.08 1098.5 592.08 1097.5V1092.6C592.08 1091.6 592.58 1091.1 593.58 1091.1H599.88V1032.6H594.48C593.48 1032.6 592.98 1032.1 592.98 1031.1V1025.9C592.98 1024.9 593.48 1024.4 594.48 1024.4H609.58C610.58 1024.4 611.08 1024.9 611.08 1025.9Z" fill="black"/>
<path d="M90.2566 232.8L76.4566 273.3H94.4566C97.4566 273.3 98.9566 274.8 98.9566 277.8V292.5C98.9566 295.5 97.4566 297 94.4566 297H30.5566C27.5566 297 26.0566 295.5 26.0566 292.5V277.8C26.0566 274.8 27.5566 273.3 30.5566 273.3H48.2566L108.257 97.5C109.457 94.7 111.457 93.3 114.257 93.3H143.357C146.157 93.3 148.157 94.7 149.357 97.5L209.957 273.3H230.357C233.357 273.3 234.857 274.8 234.857 277.8V292.5C234.857 295.5 233.357 297 230.357 297H155.057C152.057 297 150.557 295.5 150.557 292.5V277.8C150.557 274.8 152.057 273.3 155.057 273.3H173.657L159.557 232.8H90.2566ZM124.757 122.1L96.2566 210.3H152.957L124.757 122.1Z" fill="black"/>
<path d="M406.882 670.027L343.244 733.164C340.075 736.308 342.302 741.713 346.766 741.713H474.041C478.505 741.713 480.732 736.308 477.563 733.164L413.925 670.027C411.976 668.093 408.831 668.093 406.882 670.027Z" fill="#231F20"/>
<circle cx="291.667" cy="583" r="59.6667" fill="#393335"/>
<circle cx="530.334" cy="583" r="59.6667" fill="#231F20"/>
<rect x="410.64" y="547.2" width="50.12" height="50.12" rx="5" transform="rotate(45 410.64 547.2)" fill="#231F20"/>
<mask id="mask0_1023_5268" style="mask-type:alpha" maskUnits="userSpaceOnUse" x="377" y="549" width="34" height="68">
<rect x="377.586" y="549.586" width="33.4133" height="66.8267" fill="#D9D9D9"/>
</mask>
<g mask="url(#mask0_1023_5268)">
<rect x="410.64" y="547.199" width="50.12" height="50.12" rx="5" transform="rotate(45 410.64 547.199)" fill="#393335"/>
</g>
<circle cx="411" cy="463.667" r="59.6667" fill="#231F20"/>
<mask id="mask1_1023_5268" style="mask-type:alpha" maskUnits="userSpaceOnUse" x="351" y="404" width="61" height="120">
<rect x="351.334" y="404" width="59.6667" height="119.333" fill="#D9D9D9"/>
</mask>
<g mask="url(#mask1_1023_5268)">
<circle cx="411.001" cy="463.667" r="59.6667" fill="#393335"/>
</g>
<mask id="mask2_1023_5268" style="mask-type:alpha" maskUnits="userSpaceOnUse" x="341" y="668" width="69" height="74">
<rect x="341" y="668" width="69" height="74" fill="#D9D9D9"/>
</mask>
<g mask="url(#mask2_1023_5268)">
<path d="M406.882 670.027L343.244 733.164C340.075 736.308 342.302 741.713 346.766 741.713H474.041C478.505 741.713 480.732 736.308 477.563 733.164L413.925 670.027C411.976 668.093 408.831 668.093 406.882 670.027Z" fill="#393335"/>
</g>
<path d="M128.425 410.731L112.114 426.913C110.846 428.171 111.737 430.333 113.523 430.333H146.145C147.93 430.333 148.821 428.171 147.553 426.913L131.242 410.731C130.462 409.957 129.205 409.957 128.425 410.731Z" fill="#231F20"/>
<circle cx="96.6666" cy="386" r="16.6666" fill="#393335"/>
<circle cx="163.333" cy="386" r="16.6666" fill="#231F20"/>
<path d="M128.485 377.414C129.266 376.633 130.533 376.633 131.314 377.414L138.385 384.485C139.166 385.266 139.166 386.533 138.385 387.314L131.314 394.385C130.533 395.166 129.266 395.166 128.485 394.385L121.414 387.314C120.633 386.533 120.633 385.266 121.414 384.485L128.485 377.414Z" fill="#231F20"/>
<mask id="mask3_1023_5268" style="mask-type:alpha" maskUnits="userSpaceOnUse" x="120" y="376" width="10" height="20">
<rect x="120.667" y="376.666" width="9.3333" height="18.6666" fill="#D9D9D9"/>
</mask>
<g mask="url(#mask3_1023_5268)">
<rect x="129.899" y="376" width="14" height="14" rx="2" transform="rotate(45 129.899 376)" fill="#393335"/>
</g>
<circle cx="130" cy="352.667" r="16.6666" fill="#231F20"/>
<mask id="mask4_1023_5268" style="mask-type:alpha" maskUnits="userSpaceOnUse" x="113" y="336" width="17" height="34">
<rect x="113.332" y="336" width="16.6666" height="33.3332" fill="#D9D9D9"/>
</mask>
<g mask="url(#mask4_1023_5268)">
<circle cx="129.999" cy="352.667" r="16.6666" fill="#393335"/>
</g>
<mask id="mask5_1023_5268" style="mask-type:alpha" maskUnits="userSpaceOnUse" x="110" y="409" width="20" height="22">
<rect x="110.447" y="409.743" width="19.2737" height="20.6703" fill="#D9D9D9"/>
</mask>
<g mask="url(#mask5_1023_5268)">
<path d="M128.425 410.731L112.114 426.913C110.846 428.171 111.737 430.333 113.523 430.333H146.145C147.93 430.333 148.821 428.171 147.553 426.913L131.242 410.731C130.462 409.957 129.205 409.957 128.425 410.731Z" fill="#393335"/>
</g>
</svg>
